static/logo-square.svg

<svg width="402" height="311" viewBox="0 0 402 311" fill="none" xmlns="http://www.w3.org/2000/svg">
<path d="M102.26 93H9.5875V0.839996H102.26C106.27 0.839996 109.982 1.608 113.396 3.144C116.894 4.59466 119.924 6.64266 122.484 9.28799C125.129 11.848 127.177 14.8773 128.628 18.376C130.164 21.7893 130.932 25.5013 130.932 29.512V64.328C130.932 68.2533 130.164 71.9653 128.628 75.464C127.177 78.9627 125.129 82.0347 122.484 84.68C119.924 87.24 116.894 89.288 113.396 90.824C109.982 92.2747 106.27 93 102.26 93ZM109.812 56.904V37.192C109.812 34.9733 109.428 32.968 108.66 31.176C107.892 29.2987 106.825 27.6773 105.46 26.312C104.094 24.8613 102.473 23.7947 100.596 23.112C98.8035 22.344 96.8408 21.96 94.7075 21.96H30.7075V71.88H94.7075C96.7555 71.88 98.6755 71.5387 100.468 70.856C102.345 70.088 103.966 69.0213 105.332 67.656C106.782 66.2907 107.892 64.712 108.66 62.92C109.428 61.0427 109.812 59.0373 109.812 56.904ZM235.263 93H171.007C167.081 93 163.369 92.2747 159.871 90.824C156.457 89.288 153.428 87.24 150.783 84.68C148.223 82.0347 146.175 79.0053 144.639 75.592C143.188 72.0933 142.463 68.3813 142.463 64.456V29.384C142.463 25.4587 143.188 21.7893 144.639 18.376C146.175 14.8773 148.223 11.848 150.783 9.28799C153.428 6.64266 156.457 4.59466 159.871 3.144C163.369 1.608 167.081 0.839996 171.007 0.839996H235.263C239.188 0.839996 242.857 1.608 246.271 3.144C249.769 4.59466 252.799 6.64266 255.359 9.28799C258.004 11.848 260.052 14.8773 261.503 18.376C263.039 21.7893 263.807 25.4587 263.807 29.384V64.456C263.807 68.3813 263.039 72.0933 261.503 75.592C260.052 79.0053 258.004 82.0347 255.359 84.68C252.799 87.24 249.769 89.288 246.271 90.824C242.857 92.2747 239.188 93 235.263 93ZM242.687 56.776V37.192C242.687 35.144 242.303 33.224 241.535 31.432C240.852 29.5547 239.828 27.9333 238.463 26.568C237.183 25.1173 235.604 24.008 233.727 23.24C231.935 22.3867 229.972 21.96 227.839 21.96H178.943C176.809 21.96 174.804 22.344 172.927 23.112C171.049 23.7947 169.385 24.8187 167.935 26.184C166.569 27.5493 165.503 29.1707 164.735 31.048C163.967 32.84 163.583 34.8453 163.583 37.064V56.904C163.583 58.952 163.924 60.872 164.607 62.664C165.375 64.456 166.441 66.0773 167.807 67.528C169.172 68.8933 170.751 69.96 172.543 70.728C174.42 71.496 176.468 71.88 178.687 71.88H227.455C229.759 71.88 231.807 71.496 233.599 70.728C235.476 69.96 237.097 68.8933 238.463 67.528C239.828 66.0773 240.852 64.456 241.535 62.664C242.303 60.7867 242.687 58.824 242.687 56.776ZM373.258 68.296V0.839996H394.378V93H367.882L296.458 25.672V93H275.338V0.839996H301.962L373.258 68.296ZM133.59 144.656H112.47C112.47 142.864 112.129 141.157 111.446 139.536C110.849 137.829 109.91 136.379 108.63 135.184C107.435 133.904 105.942 132.88 104.15 132.112C102.443 131.344 100.438 130.96 98.134 130.96H44.63C42.4113 130.96 40.3633 131.344 38.486 132.112C36.694 132.795 35.0727 133.819 33.622 135.184C32.2567 136.549 31.19 138.213 30.422 140.176C29.654 142.053 29.27 144.144 29.27 146.448V165.776C29.27 167.995 29.654 170.043 30.422 171.92C31.19 173.712 32.2567 175.291 33.622 176.656C35.0727 178.021 36.7367 179.088 38.614 179.856C40.4913 180.539 42.4967 180.88 44.63 180.88H98.134C99.926 180.88 101.675 180.539 103.382 179.856C105.089 179.088 106.625 178.064 107.99 176.784C109.355 175.504 110.422 174.011 111.19 172.304C112.043 170.512 112.47 168.592 112.47 166.544H133.59V169.104C133.59 173.115 132.865 177.083 131.414 181.008C129.963 184.933 127.915 188.475 125.27 191.632C122.71 194.704 119.595 197.221 115.926 199.184C112.257 201.061 108.203 202 103.766 202H36.822C32.8967 202 29.1847 201.275 25.686 199.824C22.1873 198.288 19.1153 196.24 16.47 193.68C13.91 191.035 11.862 187.963 10.326 184.464C8.87533 180.965 8.15 177.253 8.15 173.328V138.512C8.15 134.501 8.87533 130.789 10.326 127.376C11.862 123.877 13.91 120.848 16.47 118.288C19.1153 115.643 22.1873 113.595 25.686 112.144C29.1847 110.608 32.8967 109.84 36.822 109.84H103.766C108.203 109.84 112.257 110.821 115.926 112.784C119.595 114.661 122.71 117.136 125.27 120.208C127.915 123.28 129.963 126.736 131.414 130.576C132.865 134.416 133.59 138.256 133.59 142.096V144.656ZM145.15 202V109.84H260.99V130.96H166.27V145.424H257.918V166.416H166.27V180.88H260.99V202H145.15ZM272.525 109.84H395.789V130.576L312.589 180.88H395.789V202H272.525V181.136L355.597 130.96H272.525V109.84ZM141.209 311H116.889L105.753 293.72H35.9925L25.1125 311H0.7925L57.3685 218.84H84.5045L141.209 311ZM69.6565 239.96L48.4085 272.6H93.7205L72.3445 239.96H69.6565ZM268.021 311H242.293L223.989 284.376H169.333V311H148.213V218.84H240.885C244.895 218.84 248.607 219.565 252.021 221.016C255.519 222.467 258.549 224.387 261.109 226.776C263.754 229.165 265.802 231.939 267.253 235.096C268.789 238.168 269.557 241.325 269.557 244.568V258.008C269.557 260.739 268.959 263.512 267.765 266.328C266.655 269.144 265.119 271.747 263.157 274.136C261.279 276.525 259.061 278.573 256.501 280.28C254.026 281.901 251.466 282.968 248.821 283.48L268.021 311ZM248.437 252.888V249.816C248.437 248.451 248.138 247.171 247.541 245.976C247.029 244.781 246.218 243.757 245.109 242.904C244.085 241.965 242.805 241.24 241.269 240.728C239.818 240.216 238.154 239.96 236.277 239.96H169.333V263.256H236.277C238.41 263.256 240.245 262.957 241.781 262.36C243.317 261.763 244.554 260.995 245.493 260.056C246.517 259.032 247.242 257.923 247.669 256.728C248.181 255.448 248.437 254.168 248.437 252.888ZM401.342 218.84V239.96H350.143V311H329.023V239.96H278.463V218.84H401.342Z" fill="white"/>
</svg>

<svg xmlns="http://www.w3.org/2000/svg" width="402" height="311" fill="none" xmlns:v="https://vecta.io/nano"><path d="M102.26 93H9.588V.84h92.673c4.01 0 7.722.768 11.136 2.304 3.498 1.451 6.528 3.499 9.088 6.144 2.645 2.56 4.693 5.589 6.144 9.088 1.536 3.413 2.304 7.125 2.304 11.136v34.816c0 3.925-.768 7.637-2.304 11.136-1.451 3.499-3.499 6.571-6.144 9.216-2.56 2.56-5.59 4.608-9.088 6.144C109.982 92.275 106.27 93 102.26 93zm7.552-36.096V37.192c0-2.219-.384-4.224-1.152-6.016-.768-1.877-1.835-3.499-3.2-4.864a12.42 12.42 0 0 0-4.864-3.2c-1.793-.768-3.755-1.152-5.889-1.152h-64v49.92h64c2.048 0 3.968-.341 5.761-1.024 1.877-.768 3.498-1.835 4.864-3.2 1.45-1.365 2.56-2.944 3.328-4.736.768-1.877 1.152-3.883 1.152-6.016zM235.263 93h-64.256c-3.926 0-7.638-.725-11.136-2.176-3.414-1.536-6.443-3.584-9.088-6.144-2.56-2.645-4.608-5.675-6.144-9.088-1.451-3.499-2.176-7.211-2.176-11.136V29.384c0-3.925.725-7.595 2.176-11.008 1.536-3.499 3.584-6.528 6.144-9.088 2.645-2.645 5.674-4.693 9.088-6.144 3.498-1.536 7.21-2.304 11.136-2.304h64.256c3.925 0 7.594.768 11.008 2.304 3.498 1.451 6.528 3.499 9.088 6.144 2.645 2.56 4.693 5.589 6.144 9.088 1.536 3.413 2.304 7.083 2.304 11.008v35.072c0 3.925-.768 7.637-2.304 11.136-1.451 3.413-3.499 6.443-6.144 9.088-2.56 2.56-5.59 4.608-9.088 6.144-3.414 1.451-7.083 2.176-11.008 2.176zm7.424-36.224V37.192c0-2.048-.384-3.968-1.152-5.76-.683-1.877-1.707-3.499-3.072-4.864-1.28-1.451-2.859-2.56-4.736-3.328-1.792-.853-3.755-1.28-5.888-1.28h-48.896c-2.134 0-4.139.384-6.016 1.152-1.878.683-3.542 1.707-4.992 3.072-1.366 1.365-2.432 2.987-3.2 4.864-.768 1.792-1.152 3.797-1.152 6.016v19.84c0 2.048.341 3.968 1.024 5.76.768 1.792 1.834 3.413 3.2 4.864 1.365 1.365 2.944 2.432 4.736 3.2 1.877.768 3.925 1.152 6.144 1.152h48.768c2.304 0 4.352-.384 6.144-1.152 1.877-.768 3.498-1.835 4.864-3.2 1.365-1.451 2.389-3.072 3.072-4.864.768-1.877 1.152-3.84 1.152-5.888zm130.571 11.52V.84h21.12V93h-26.496l-71.424-67.328V93h-21.12V.84h26.624l71.296 67.456zm-239.668 76.36h-21.12c0-1.792-.341-3.499-1.024-5.12-.597-1.707-1.536-3.157-2.816-4.352-1.195-1.28-2.688-2.304-4.48-3.072-1.707-.768-3.712-1.152-6.016-1.152H44.63c-2.219 0-4.267.384-6.144 1.152-1.792.683-3.413 1.707-4.864 3.072-1.365 1.365-2.432 3.029-3.2 4.992-.768 1.877-1.152 3.968-1.152 6.272v19.328c0 2.219.384 4.267 1.152 6.144.768 1.792 1.835 3.371 3.2 4.736a16.13 16.13 0 0 0 4.992 3.2c1.877.683 3.883 1.024 6.016 1.024h53.504c1.792 0 3.541-.341 5.248-1.024a16.72 16.72 0 0 0 4.608-3.072 13.9 13.9 0 0 0 3.2-4.48c.853-1.792 1.28-3.712 1.28-5.76h21.12v2.56c0 4.011-.725 7.979-2.176 11.904s-3.499 7.467-6.144 10.624c-2.56 3.072-5.675 5.589-9.344 7.552-3.669 1.877-7.723 2.816-12.16 2.816H36.822c-3.925 0-7.637-.725-11.136-2.176-3.499-1.536-6.571-3.584-9.216-6.144-2.56-2.645-4.608-5.717-6.144-9.216-1.451-3.499-2.176-7.211-2.176-11.136v-34.816c0-4.011.725-7.723 2.176-11.136 1.536-3.499 3.584-6.528 6.144-9.088 2.645-2.645 5.717-4.693 9.216-6.144 3.499-1.536 7.211-2.304 11.136-2.304h66.944c4.437 0 8.491.981 12.16 2.944 3.669 1.877 6.784 4.352 9.344 7.424a34.39 34.39 0 0 1 6.144 10.368c1.451 3.84 2.176 7.68 2.176 11.52v2.56zM145.15 202v-92.16h115.84v21.12h-94.72v14.464h91.648v20.992H166.27v14.464h94.72V202H145.15zm127.375-92.16h123.264v20.736l-83.2 50.304h83.2V202H272.525v-20.864l83.072-50.176h-83.072v-21.12zM141.209 311h-24.32l-11.136-17.28H35.993L25.113 311H.793l56.576-92.16h27.136L141.209 311zm-71.553-71.04L48.409 272.6h45.312l-21.376-32.64h-2.688zM268.021 311h-25.728l-18.304-26.624h-54.656V311h-21.12v-92.16h92.672c4.01 0 7.722.725 11.136 2.176 3.498 1.451 6.528 3.371 9.088 5.76 2.645 2.389 4.693 5.163 6.144 8.32 1.536 3.072 2.304 6.229 2.304 9.472v13.44c0 2.731-.598 5.504-1.792 8.32-1.11 2.816-2.646 5.419-4.608 7.808a28.56 28.56 0 0 1-6.656 6.144c-2.475 1.621-5.035 2.688-7.68 3.2l19.2 27.52zm-19.584-58.112v-3.072c0-1.365-.299-2.645-.896-3.84-.512-1.195-1.323-2.219-2.432-3.072-1.024-.939-2.304-1.664-3.84-2.176-1.451-.512-3.115-.768-4.992-.768h-66.944v23.296h66.944c2.133 0 3.968-.299 5.504-.896s2.773-1.365 3.712-2.304c1.024-1.024 1.749-2.133 2.176-3.328.512-1.28.768-2.56.768-3.84zm152.905-34.048v21.12h-51.199V311h-21.12v-71.04h-50.56v-21.12h122.879z" fill="#fff"/></svg>
